icons/lines/message-circle.svg

<svg xmlns="http://www.w3.org/2000/svg" width="24" height="24" viewBox="0 0 24 24" fill="none" stroke="currentColor" stroke-width="2" stroke-linecap="round" stroke-linejoin="round" >
  <path d="M17.25 10.18V12.81C17.25 12.98 17.24 13.14 17.22 13.3C17.07 15.07 16.02 15.95 14.1 15.95H13.84C13.68 15.95 13.52 16.03 13.42 16.16L12.63 17.21C12.28 17.68 11.72 17.68 11.37 17.21L10.58 16.16C10.49 16.05 10.3 15.95 10.16 15.95H9.89999C7.79999 15.95 6.75 15.43 6.75 12.8V10.17C6.75 8.25001 7.63999 7.19999 9.39999 7.04999C9.55999 7.02999 9.72001 7.01999 9.89001 7.01999H14.09C16.2 7.03999 17.25 8.08999 17.25 10.18Z" stroke-miterlimit="10"/>
  <path d="M12 22C17.5228 22 22 17.5228 22 12C22 6.47715 17.5228 2 12 2C6.47715 2 2 6.47715 2 12C2 17.5228 6.47715 22 12 22Z" stroke-miterlimit="10"/>
  </svg>

<svg xmlns="http://www.w3.org/2000/svg" width="24" height="24" viewBox="0 0 24 24" fill="none" stroke="currentColor" stroke-width="2" stroke-linecap="round" stroke-linejoin="round">
  <path d="M17.25 12.81a4 4 0 0 1-.03.49c-.15 1.77-1.2 2.65-3.12 2.65h-.26a.54.54 0 0 0-.42.21l-.79 1.05c-.35.47-.91.47-1.26 0l-.79-1.05a.63.63 0 0 0-.42-.21H9.9c-2.1 0-3.15-.52-3.15-3.15v-2.63c0-1.92.89-2.97 2.65-3.12a4 4 0 0 1 .49-.03h4.2c2.11.02 3.16 1.07 3.16 3.16z" />
  <circle cx="12" cy="12" r="10" />
</svg>
